src/assets/svgs/refactor/portal-discord.svg

<svg fill="none" height="18" viewBox="0 0 24 18" width="24" xmlns="http://www.w3.org/2000/svg"><g fill="#101010"><path d="m16.5785 18c-.4815 0-.8781-.3898-.8781-.8631v-.8979c-1.3241.2366-2.535.3619-3.6963.3619-1.1614 0-2.45013-.1392-3.64686-.4106l-.06373.9396c0 .4803-.39655.8631-.87807.8631-2.7121-.1601-5.25425-1.2946-7.159094-3.1949-.1770302-.174-.2690858-.4176-.2549234-.6542.1982734-3.188.3965474-6.48033 2.1880874-10.16942.49569-1.10673 3.78845-3.299306 6.37309-3.9396772.07081-.0139211.14162-.02784224.21243-.02784224.40363 0 .75061.27146144.84975.65429244.1133.466357-.16995.939677-.63731 1.051047-2.03939.42459-3.90174 1.53132-5.26133 3.10441-1.26754 2.86078-1.91901 5.89559-1.94734 9.01389 1.31711 1.2181 2.9387 2.0325 4.69484 2.3527l.05665-.5151c-1.17548-.4872-2.23766-1.0928-3.17238-1.8237-.3753-.2993-.43903-.8491-.14162-1.2181.16995-.2088.42487-.3271.69396-.3271.19827 0 .38946.0626.54525.1879 2.06063 1.5453 4.61694 2.3945 7.2157 2.3945h.3329.3257c2.5846 0 5.148-.8492 7.2157-2.3945.1629-.1253.3612-.1879.5595-.1879.269 0 .5169.1183.6798.3271.2974.3829.2336.9258-.1417 1.2181-.9418.7309-2.004 1.3295-3.1653 1.775-.0212.0905-.0141.5151-.0141.5151 1.7915-.2715 3.4202-1.065 4.7373-2.2692 0-3.1322-.6515-6.17398-1.9261-9.03477-1.3596-1.58005-3.229-2.68678-5.2684-3.11833-.2408-.05569-.432-.1949-.5523-.40372-.1204-.20185-.1487-.43155-.0921-.654288.0991-.38283.4461-.654292.8497-.654292.0779 0 .1488.00696056.2196.0278422 2.5846.6403708 5.7357 2.5893278 6.366 3.9396778 1.8057 3.69605 2.0039 6.98148 2.2022 10.16938.0071.2506-.085.4942-.2549.6612-1.8978 1.8933-4.4328 3.0279-7.1308 3.1949h-.0283z"/><path d="m18.9295 5.0464c.2407-.44547.0566-.99536-.3895-1.23202-2.0394-.96055-4.277-1.43387-6.5359-1.37122-2.25894-.05569-4.50368.41067-6.53599 1.37122-.4532.23666-.60898.79351-.36822 1.24594.24076.43156.77893.60557 1.22505.38284 1.77738-.82135 3.72466-1.22506 5.68616-1.16938 1.9615-.05568 3.9089.34803 5.6862 1.16938.4532.19489.9843.02784 1.2534-.38284h-.0071z"/><path d="m9.22115 10.6497c.64439 0 1.16135-.5151 1.16135-1.14854 0-.63341-.52404-1.14849-1.16135-1.14849s-1.16132.51508-1.16132 1.14849c0 .63344.52401 1.14854 1.16132 1.14854z"/><path d="m14.7586 10.6497c.6444 0 1.1614-.5151 1.1614-1.14854 0-.63341-.524-1.14849-1.1614-1.14849-.6373 0-1.1613.51508-1.1613 1.14849 0 .63344.524 1.14854 1.1613 1.14854z"/></g></svg>

<svg width="24" height="18" viewBox="0 0 24 18" fill="none" xmlns="http://www.w3.org/2000/svg">
<path d="M16.5785 18C16.097 18 15.7004 17.6102 15.7004 17.1369V16.239C14.3763 16.4756 13.1654 16.6009 12.0041 16.6009C10.8427 16.6009 9.55397 16.4617 8.35724 16.1903L8.29351 17.1299C8.29351 17.6102 7.89696 17.993 7.41544 17.993C4.70334 17.8329 2.16119 16.6984 0.256346 14.7981C0.0793158 14.6241 -0.0127398 14.3805 0.0014226 14.1439C0.199696 10.9559 0.39797 7.66357 2.18951 3.97448C2.6852 2.86775 5.97796 0.675174 8.5626 0.0348028C8.63341 0.0208817 8.70422 0.00696056 8.77503 0.00696056C9.17866 0.00696056 9.52564 0.278422 9.62478 0.661253C9.73808 1.12761 9.45483 1.60093 8.98747 1.7123C6.94808 2.13689 5.08573 3.24362 3.72614 4.81671C2.4586 7.67749 1.80713 10.7123 1.7788 13.8306C3.09591 15.0487 4.7175 15.8631 6.47364 16.1833L6.53029 15.6682C5.35481 15.181 4.29263 14.5754 3.35791 13.8445C2.98261 13.5452 2.91888 12.9954 3.21629 12.6264C3.38624 12.4176 3.64116 12.2993 3.91025 12.2993C4.10852 12.2993 4.29971 12.3619 4.4555 12.4872C6.51613 14.0325 9.07244 14.8817 11.6712 14.8817C11.7775 14.8817 11.8908 14.8817 12.0041 14.8817C12.1103 14.8817 12.2165 14.8817 12.3298 14.8817C14.9144 14.8817 17.4778 14.0325 19.5455 12.4872C19.7084 12.3619 19.9067 12.2993 20.105 12.2993C20.374 12.2993 20.6219 12.4176 20.7848 12.6264C21.0822 13.0093 21.0184 13.5522 20.6431 13.8445C19.7013 14.5754 18.6391 15.174 17.4778 15.6195C17.4566 15.71 17.4637 16.1346 17.4637 16.1346C19.2552 15.8631 20.8839 15.0696 22.201 13.8654C22.201 10.7332 21.5495 7.69142 20.2749 4.83063C18.9153 3.25058 17.0459 2.14385 15.0065 1.7123C14.7657 1.65661 14.5745 1.5174 14.4542 1.30858C14.3338 1.10673 14.3055 0.87703 14.3621 0.654292C14.4612 0.271462 14.8082 0 15.2118 0C15.2897 0 15.3606 0.00696056 15.4314 0.0278422C18.016 0.668213 21.1671 2.61717 21.7974 3.96752C23.6031 7.66357 23.8013 10.949 23.9996 14.1369C24.0067 14.3875 23.9146 14.6311 23.7447 14.7981C21.8469 16.6914 19.3119 17.826 16.6139 17.993H16.5856L16.5785 18Z" fill="#101010"/>
<path d="M18.9295 5.0464C19.1702 4.60093 18.9861 4.05104 18.54 3.81438C16.5006 2.85383 14.263 2.38051 12.0041 2.44316C9.74516 2.38747 7.50042 2.85383 5.46811 3.81438C5.01491 4.05104 4.85913 4.60789 5.09989 5.06032C5.34065 5.49188 5.87882 5.66589 6.32494 5.44316C8.10232 4.62181 10.0496 4.2181 12.0111 4.27378C13.9726 4.2181 15.92 4.62181 17.6973 5.44316C18.1505 5.63805 18.6816 5.471 18.9507 5.06032H18.9436L18.9295 5.0464Z" fill="#101010"/>
<path d="M9.22115 10.6497C9.86554 10.6497 10.3825 10.1346 10.3825 9.50116C10.3825 8.86775 9.85846 8.35267 9.22115 8.35267C8.58384 8.35267 8.05983 8.86775 8.05983 9.50116C8.05983 10.1346 8.58384 10.6497 9.22115 10.6497Z" fill="#101010"/>
<path d="M14.7586 10.6497C15.403 10.6497 15.92 10.1346 15.92 9.50116C15.92 8.86775 15.396 8.35267 14.7586 8.35267C14.1213 8.35267 13.5973 8.86775 13.5973 9.50116C13.5973 10.1346 14.1213 10.6497 14.7586 10.6497Z" fill="#101010"/>
</svg>
